src/assets/img/createPassword/Eye.svg

<svg fill="none" height="24" viewBox="0 0 24 24" width="24" xmlns="http://www.w3.org/2000/svg"><g stroke="#fff" stroke-linecap="round" stroke-linejoin="round" stroke-width="1.5"><path d="m12 5.24927c-7.5 0-10.5 6.75073-10.5 6.75073s3 6.7493 10.5 6.7493 10.5-6.7493 10.5-6.7493-3-6.75073-10.5-6.75073z"/><path d="m12 15.75c2.0711 0 3.75-1.6789 3.75-3.75 0-2.07107-1.6789-3.75-3.75-3.75-2.07107 0-3.75 1.67893-3.75 3.75 0 2.0711 1.67893 3.75 3.75 3.75z"/></g></svg>

<svg width="24" height="24" viewBox="0 0 24 24" fill="none" xmlns="http://www.w3.org/2000/svg">
<path d="M12 5.24927C4.5 5.24927 1.5 12 1.5 12C1.5 12 4.5 18.7493 12 18.7493C19.5 18.7493 22.5 12 22.5 12C22.5 12 19.5 5.24927 12 5.24927Z" stroke="white" stroke-width="1.5" stroke-linecap="round" stroke-linejoin="round"/>
<path d="M12 15.75C14.0711 15.75 15.75 14.0711 15.75 12C15.75 9.92893 14.0711 8.25 12 8.25C9.92893 8.25 8.25 9.92893 8.25 12C8.25 14.0711 9.92893 15.75 12 15.75Z" stroke="white" stroke-width="1.5" stroke-linecap="round" stroke-linejoin="round"/>
</svg>
